Numix/16/status/indicator-keyboard-Tk.svg

<?xml version="1.0" encoding="UTF-8" standalone="no"?>
<svg
   xmlns:dc="http://purl.org/dc/elements/1.1/"
   xmlns:cc="http://creativecommons.org/ns#"
   xmlns:rdf="http://www.w3.org/1999/02/22-rdf-syntax-ns#"
   xmlns:svg="http://www.w3.org/2000/svg"
   xmlns="http://www.w3.org/2000/svg"
   xmlns:sodipodi="http://sodipodi.sourceforge.net/DTD/sodipodi-0.dtd"
   xmlns:inkscape="http://www.inkscape.org/namespaces/inkscape"
   viewBox="0 0 16 16"
   id="svg2"
   version="1.1"
   inkscape:version="0.91 r13725"
   sodipodi:docname="indicator-keyboard-Tk.svg">
  <metadata
     id="metadata13">
    <rdf:RDF>
      <cc:Work
         rdf:about="">
        <dc:format>image/svg+xml</dc:format>
        <dc:type
           rdf:resource="http://purl.org/dc/dcmitype/StillImage" />
      </cc:Work>
    </rdf:RDF>
  </metadata>
  <defs
     id="defs11" />
  <sodipodi:namedview
     pagecolor="#ffffff"
     bordercolor="#666666"
     borderopacity="1"
     objecttolerance="10"
     gridtolerance="10"
     guidetolerance="10"
     inkscape:pageopacity="0"
     inkscape:pageshadow="2"
     inkscape:window-width="640"
     inkscape:window-height="480"
     id="namedview9"
     showgrid="false"
     inkscape:zoom="14.75"
     inkscape:cx="8"
     inkscape:cy="8"
     inkscape:window-x="65"
     inkscape:window-y="24"
     inkscape:window-maximized="0"
     inkscape:current-layer="svg2" />
  <path
     style="fill:#ececec;fill-opacity:1"
     d="M 1.5996094 0 C 0.71320937 2.9605947e-16 0 0.71320937 0 1.5996094 L 0 14.400391 C 2.9605947e-16 15.286791 0.71320937 16 1.5996094 16 L 14.400391 16 C 15.286791 16 16 15.286791 16 14.400391 L 16 1.5996094 C 16 0.71320937 15.286791 0 14.400391 0 L 1.5996094 0 z M 9.6015625 4.5078125 L 9.6015625 8.9355469 C 9.7515625 8.7915469 9.9194685 8.6274063 10.105469 8.4414062 C 10.291469 8.2554063 10.478063 8.0650469 10.664062 7.8730469 C 10.856063 7.6810469 11.035125 7.4964063 11.203125 7.3164062 C 11.371125 7.1364062 11.514766 6.9778438 11.634766 6.8398438 L 12.337891 6.8398438 C 12.199891 6.9838437 12.043141 7.1442188 11.869141 7.3242188 C 11.695141 7.5042188 11.512313 7.6945781 11.320312 7.8925781 C 11.134313 8.0845781 10.947719 8.2729844 10.761719 8.4589844 L 10.257812 8.9628906 C 10.443812 9.0888906 10.641563 9.2512188 10.851562 9.4492188 C 11.067563 9.6472188 11.278422 9.863656 11.482422 10.097656 C 11.692422 10.325656 11.886406 10.562594 12.066406 10.808594 C 12.252406 11.048594 12.409156 11.276188 12.535156 11.492188 L 11.841797 11.492188 C 11.697797 11.252188 11.533656 11.017062 11.347656 10.789062 C 11.167656 10.555063 10.975484 10.336813 10.771484 10.132812 C 10.573484 9.9288122 10.371969 9.7422187 10.167969 9.5742188 C 9.9699685 9.4062187 9.7815625 9.2663438 9.6015625 9.1523438 L 9.6015625 11.492188 L 9.015625 11.492188 L 9.015625 4.6152344 L 9.6015625 4.5078125 z M 3.4648438 5.2558594 L 8.0722656 5.2558594 L 8.0722656 5.7851562 L 6.0742188 5.7851562 L 6.0742188 11.492188 L 5.4628906 11.492188 L 5.4628906 5.7851562 L 3.4648438 5.7851562 L 3.4648438 5.2558594 z "
     id="path4" />
</svg>

<svg xmlns="http://www.w3.org/2000/svg" viewBox="0 0 16 16">
 <path d="m 1.6 0 c -0.886 0 -1.6 0.713 -1.6 1.6 l 0 12.801 c 0 0.886 0.713 1.6 1.6 1.6 l 12.801 0 c 0.886 0 1.6 -0.713 1.6 -1.6 l 0 -12.801 c 0 -0.886 -0.713 -1.6 -1.6 -1.6 l -12.801 0 z m 8 4.508 l 0 4.428 c 0.15 -0.144 0.318 -0.308 0.504 -0.494 c 0.186 -0.186 0.373 -0.376 0.559 -0.568 c 0.192 -0.192 0.371 -0.377 0.539 -0.557 c 0.168 -0.18 0.312 -0.339 0.432 -0.477 l 0.703 0 c -0.138 0.144 -0.295 0.304 -0.469 0.484 c -0.174 0.18 -0.357 0.37 -0.549 0.568 c -0.186 0.192 -0.373 0.38 -0.559 0.566 l -0.504 0.504 c 0.186 0.126 0.384 0.288 0.594 0.486 c 0.216 0.198 0.427 0.414 0.631 0.648 c 0.21 0.228 0.404 0.465 0.584 0.711 c 0.186 0.24 0.343 0.468 0.469 0.684 l -0.693 0 c -0.144 -0.24 -0.308 -0.475 -0.494 -0.703 c -0.18 -0.234 -0.372 -0.452 -0.576 -0.656 c -0.198 -0.204 -0.4 -0.391 -0.604 -0.559 c -0.198 -0.168 -0.386 -0.308 -0.566 -0.422 l 0 2.34 l -0.586 0 l 0 -6.877 l 0.586 -0.107 z m -6.137 0.748 l 4.607 0 l 0 0.529 l -1.998 0 l 0 5.707 l -0.611 0 l 0 -5.707 l -1.998 0 l 0 -0.529 z" style="fill:#ececec;fill-opacity:1"/>
</svg>
